src/cart.svg

<svg xmlns="http://www.w3.org/2000/svg" class="dibsvg-svg dibsvg-cart" viewBox="0 0 250 250">
    <path fill="none" d="M193.6 211.8c-4.7 0-8.6 3.9-8.6 8.7s3.9 8.7 8.6 8.7 8.6-3.9 8.6-8.7-3.9-8.7-8.6-8.7z"/>
    <path fill="none" d="M100.4 211.8c-4.7 0-8.6 3.9-8.6 8.7s3.9 8.7 8.6 8.7c4.7 0 8.6-3.9 8.6-8.7s-3.9-8.7-8.6-8.7z"/>
    <polygon fill="none" points="63.7,64 83.1,170 214.7,170 235.5,64"/>
    <path d="M61.6 53L50.8 7H0v11h42.2l9.5 40.4L74.1 181h149.5l25.1-128H61.6zm153.1 117H83.1L63.7 64h171.7l-20.7 106z"/>
    <path d="M100.4 199.8c-11.3 0-20.4 9.3-20.4 20.7s9.2 20.7 20.4 20.7 20.4-9.3 20.4-20.7-9.1-20.7-20.4-20.7zm0 29.3c-4.7 0-8.6-3.9-8.6-8.7s3.9-8.7 8.6-8.7c4.7 0 8.6 3.9 8.6 8.7s-3.9 8.7-8.6 8.7z"/>
    <path d="M193.6 199.8c-11.3 0-20.4 9.3-20.4 20.7s9.2 20.7 20.4 20.7 20.4-9.3 20.4-20.7-9.1-20.7-20.4-20.7zm0 29.3c-4.7 0-8.6-3.9-8.6-8.7s3.9-8.7 8.6-8.7 8.6 3.9 8.6 8.7-3.9 8.7-8.6 8.7z"/>
</svg>

<svg xmlns="http://www.w3.org/2000/svg" class="dibsvg-svg dibsvg-cart" viewBox="0 0 250 250">
    <path fill="none" d="M193.6,211.8c-4.7,0-8.6,3.9-8.6,8.7s3.9,8.7,8.6,8.7s8.6-3.9,8.6-8.7S198.3,211.8,193.6,211.8z"/>
    <path fill="none" d="M100.4,211.8c-4.7,0-8.6,3.9-8.6,8.7s3.9,8.7,8.6,8.7c4.7,0,8.6-3.9,8.6-8.7S105.1,211.8,100.4,211.8z"/>
    <polygon fill="none" points="63.7,64 83.1,170 214.7,170 235.5,64"/>
    <path d="M61.6,53L50.8,7H0v11h42.2l9.5,40.4L74.1,181h149.5l25.1-128H61.6z M214.7,170H83.1L63.7,64h171.7L214.7,170z"/>
    <path d="M100.4,199.8c-11.3,0-20.4,9.3-20.4,20.7s9.2,20.7,20.4,20.7s20.4-9.3,20.4-20.7S111.7,199.8,100.4,199.8z M100.4,229.1c-4.7,0-8.6-3.9-8.6-8.7s3.9-8.7,8.6-8.7c4.7,0,8.6,3.9,8.6,8.7S105.1,229.1,100.4,229.1z"/>
    <path d="M193.6,199.8c-11.3,0-20.4,9.3-20.4,20.7s9.2,20.7,20.4,20.7s20.4-9.3,20.4-20.7S204.9,199.8,193.6,199.8z M193.6,229.1c-4.7,0-8.6-3.9-8.6-8.7s3.9-8.7,8.6-8.7s8.6,3.9,8.6,8.7S198.3,229.1,193.6,229.1z"/>
</svg>
